X:1
T: The Cat's Craig
C:
R:Reel
Q: 232
K:D
M:4/4
L:1/8
|:de|f2 a2 d2 f2|A2 d2 d2 ef|g2 b2 e2 g2|B2 e2 e2 de|
f2 a2 d2 f2|A2 d2 d2 ef|gf ed f2 e2|1d2 d2 d2 de:|2d2 d2 d2 fg|
|:a2 d2 ag fe|de fg a2 cd|e2 A2 ed cB|AB cd e2 fg|
a2 d2 ag fe|de fg a2 gf|gf ed f2 e2|1d2 d2 d2 fg:|2d2 d2 d2||
